src/_assets/sidebar/parachains-icon.svg

<svg width="24" height="24" viewBox="0 0 24 24" fill="none" xmlns="http://www.w3.org/2000/svg">
<path d="M15.9219 12.324C15.9219 12.7452 15.5259 13.0877 15.0405 13.0877H8.96066C8.47413 13.0877 8.07927 12.7435 8.07927 12.324C8.07927 11.9046 8.47531 11.5621 8.96066 11.5621H15.0393C15.5259 11.5621 15.9219 11.9017 15.9219 12.324Z" fill="#485F7D"/>
<path d="M22 12.324C22 14.7087 19.7859 16.6486 17.0642 16.6486H14.0263C13.5392 16.6486 13.1449 16.3044 13.1449 15.8861C13.1449 15.4678 13.541 15.1224 14.0263 15.1224H17.0654C18.8129 15.1224 20.2343 13.8675 20.2343 12.324C20.2343 10.7806 18.8129 9.52627 17.0654 9.52627H14.0263C13.5392 9.52627 13.1449 9.182 13.1449 8.76371C13.1449 8.34542 13.5392 8 14.0263 8H17.0654C19.7859 8 22 9.93996 22 12.324Z" fill="#485F7D"/>
<path d="M10.8568 15.8861C10.8568 16.3067 10.4608 16.6486 9.97544 16.6486H6.93581C4.21524 16.6486 2 14.7087 2 12.324C2 9.93939 4.21406 8 6.93581 8H9.97544C10.462 8 10.8568 8.34427 10.8568 8.76371C10.8568 9.18314 10.4614 9.52627 9.97426 9.52627H6.93581C5.1883 9.52627 3.7669 10.7811 3.7669 12.324C3.7669 13.8669 5.18712 15.1224 6.93581 15.1224H9.97544C10.4614 15.1224 10.8568 15.4649 10.8568 15.8861Z" fill="#485F7D"/>
</svg>

<svg xmlns="http://www.w3.org/2000/svg" width="24" height="24" fill="none"><path fill="#485F7D" d="M15.922 12.324c0 .421-.396.764-.882.764H8.96c-.486 0-.88-.344-.88-.764s.395-.762.88-.762h6.08c.486 0 .882.34.882.762"/><path fill="#485F7D" d="M22 12.324c0 2.385-2.214 4.325-4.936 4.325h-3.038c-.487 0-.881-.345-.881-.763s.396-.764.881-.764h3.04c1.747 0 3.168-1.255 3.168-2.798s-1.421-2.798-3.169-2.798h-3.039c-.487 0-.881-.344-.881-.762S13.539 8 14.026 8h3.04C19.785 8 22 9.94 22 12.324m-11.143 3.562c0 .42-.396.763-.882.763h-3.04c-2.72 0-4.935-1.94-4.935-4.325S4.214 8 6.936 8h3.04c.486 0 .88.344.88.764s-.395.762-.882.762H6.936c-1.748 0-3.17 1.255-3.17 2.798s1.421 2.798 3.17 2.798h3.04c.485 0 .88.343.88.764"/></svg>
